Icons/Line/si_Copy.svg

<svg width="24" height="24" viewBox="0 0 24 24" fill="none" xmlns="http://www.w3.org/2000/svg">
<path d="M18.6 9H11.4C10.0745 9 9 10.0745 9 11.4V18.6C9 19.9255 10.0745 21 11.4 21H18.6C19.9255 21 21 19.9255 21 18.6V11.4C21 10.0745 19.9255 9 18.6 9Z" stroke="black" stroke-width="1.5" stroke-miterlimit="10"/>
<path d="M6 15H5.4C4.07 15 3 13.93 3 12.6V5.4C3 4.07 4.07 3 5.4 3H12.6C13.93 3 15 4.07 15 5.4V6" stroke="black" stroke-width="1.5" stroke-miterlimit="10" stroke-linecap="round"/>
</svg>

<svg width="24" height="24" fill="none" xmlns="http://www.w3.org/2000/svg"><path d="M18.6 9h-7.2A2.4 2.4 0 0 0 9 11.4v7.2a2.4 2.4 0 0 0 2.4 2.4h7.2a2.4 2.4 0 0 0 2.4-2.4v-7.2A2.4 2.4 0 0 0 18.6 9Z" stroke="#000" stroke-width="1.5" stroke-miterlimit="10"/><path d="M6 15h-.6C4.07 15 3 13.93 3 12.6V5.4C3 4.07 4.07 3 5.4 3h7.2C13.93 3 15 4.07 15 5.4V6" stroke="#000" stroke-width="1.5" stroke-miterlimit="10" stroke-linecap="round"/></svg>
